actions/16/folder-stash.svg

<svg xmlns="http://www.w3.org/2000/svg" viewBox="0 0 16 16">
  <defs id="defs3051">
    <style type="text/css" id="current-color-scheme">.ColorScheme-Text {color:#fcfcfc;}</style>
  </defs>
 <path style="fill:currentColor;fill-opacity:1;stroke:none" 
       d="m 2,4 v 8 c 0,2 2,2 2,2 H 9 V 13 H 4 C 4,13 3,13 3,12 3,12 3,9 3,8 3,7 4,7 4,7 h 9 1 V 6 C 14,6 14,4 12,4 H 9.0078125 l -2,-2 L 7,2.0078125 V 2 H 4 C 4,2 2,2 2,4 Z M 4,3 H 6.5917969 L 7.59375,4 H 7 V 4.00781 L 6.9921875,4 l -2,2 H 3 V 4 C 3,3 4,3 4,3 Z m 7,5 v 1 h -1 v 4 1 h 5 V 13 9 H 14 V 8 Z m 0,2 h 3 v 3 h -3 z"
     class="ColorScheme-Text"
     />
</svg>

<svg xmlns="http://www.w3.org/2000/svg" viewBox="0 0 16 16">
  <defs id="defs3051">
    <style type="text/css" id="current-color-scheme">
      .ColorScheme-Text {
        color:#eff0f1;
      }
      </style>
  </defs>
 <path style="fill:currentColor;fill-opacity:1;stroke:none" 
       d="M 2 2 L 2 3 L 2 6 L 2 7 L 2 13 L 2 14 L 9 14 L 9 13 L 3 13 L 3 7 L 13 7 L 14 7 L 14 6 L 14 5 L 14 4 L 9.0078125 4 L 7.0078125 2 L 7 2.0078125 L 7 2 L 3 2 L 2 2 z M 3 3 L 6.5917969 3 L 7.59375 4 L 7 4 L 7 4.0078125 L 6.9921875 4 L 4.9921875 6 L 3 6 L 3 3 z M 11 8 L 11 9 L 10 9 L 10 13 L 10 14 L 15 14 L 15 13 L 15 9 L 14 9 L 14 8 L 11 8 z M 11 10 L 14 10 L 14 13 L 11 13 L 11 10 z "
     class="ColorScheme-Text"
     />
</svg>
